X: 11162
T: MISS JANE STUART'S STRATHSPEY
C: T. H.
P: Copyright.
%R: strathspey
B: W. Hamilton "Universal Tune-Book" Vol. 1 Glasgow 1844 p.116 #2
S: http://imslp.org/wiki/Hamilton's_Universal_Tune-Book_(Various)
Z: 2016 John Chambers <jc:trillian.mit.edu>
N: The last bar has the dot after the 16th-note d; fixed to match the other final bars.
M: C
L: 1/16
K: D
% - - - - - - - - - - - - - - - - - - - - - - - - -
|:\
D3EF3A BA3d4 | Bd3Ad3 edcB AGFE |\
D3EF3A BA3d4 | B3e dcBA fd3 d4 ::\
f3ed3f g3a bagf |
e3dc3e f3g agfe |\
d3cB3d e3f gfed | c3BA3c ed3 d4 ::\
d3AF2A2 GB3FA3 | B(d3e3)f gfed dcBA |
d3AF2A2 GB3FA3 | B3e dcBA fd3d4 ::\
fa3fa3 bagf a2d2 | Be3Be3 g3ec2A2 |\
FA3d3A GB3d3B | ABcd efga fd3 d4 :|
% - - - - - - - - - - - - - - - - - - - - - - - - -

%%sep 1 1 500
%%sep 1 1 500

